svg/factions/sentient.svg

<svg xmlns="http://www.w3.org/2000/svg" width="256" height="256" viewBox="0 0 128 128">
    <path d="M56.83 28.27c2.55-4.53 8.9-3.86 13-2.13 3.06 4.12-1.1 8.47-2.34 12.45-1.13 1.75-1.3 5.41-3.92 5.35-2.57-2.51-3.15-6.42-4.8-9.55-1.05-1.89-1.85-3.93-1.94-6.12m-9.04 4.5c1.08-1.03 2.76-.65 4.11-.93 1.92 2.91 3.63 6.47 2.96 10.04-1.15 3.87-5.29 5.43-7.47 8.59-4.51 5.13-8.15 12.4-5.23 19.19 2.48 5.19 6.15 9.87 10.9 13.17 2.45 1.62 4.02 4.29 4.81 7.07.1 3.7.67 7.36 1.07 11.03.42 1.32-1.32 3.03-2.31 1.51-6.49-6.17-14.39-10.85-19.88-18.05-.89-.78-1.45-2.33-2.74-2.45-2.22 1.18-4.3 2.63-6.51 3.84-1.26.36-2.51.75-3.76 1.14-1.65-.82-3.31-1.59-5-2.3 2.8-3.93 8.27-4.7 12.23-7.2-.34-2.99-2.41-5.57-3.18-8.5-5.57.91-11.2 1.07-16.83 1.31-3.14.04-7.04 2.01-9.62-.6 1.98-3.37 3.8-7.57 8.14-8.29 6.05-.81 12.22.19 18.32.09.14-2.59 1.03-5.03 2.19-7.32-4.29-.91-9.25-1.21-12.49-4.53-1.21-2.04-1.69-4.4-2.49-6.61 6.48-.05 12.26 3.62 18.44 5.19 3.79-5.94 9.08-10.76 14.34-15.39m28.31-.93c1.34.27 2.99-.13 4.06.92 5.31 4.59 10.58 9.46 14.39 15.4 6.18-1.57 11.95-5.23 18.43-5.19-.81 2.22-1.27 4.62-2.52 6.65-3.23 3.29-8.18 3.58-12.45 4.49 1.15 2.29 2.06 4.73 2.18 7.32 6.08.09 12.23-.88 18.26-.11 4.36.71 6.21 4.9 8.21 8.28-2.54 2.67-6.48.66-9.62.63-5.63-.24-11.26-.4-16.83-1.31-.74 2.94-2.91 5.52-3.14 8.53 3.95 2.47 9.39 3.25 12.19 7.17-1.7.71-3.37 1.48-5.01 2.32-3.6-.8-6.69-2.78-9.73-4.76-1.24-.89-1.98.93-2.75 1.59-5.77 7.66-14.08 12.68-21 19.15l-.75.13c-2.22-2.42.12-6.08-.14-9-.31-4.29 1.41-8.79 5.07-11.23 4.74-3.3 8.41-7.97 10.89-13.16 2.92-6.78-.71-14.05-5.21-19.17-2.19-3.18-6.35-4.73-7.5-8.63-.65-3.56 1.04-7.12 2.97-10.02"/>
    <path d="M54.03 64.46c3.18-1.83 6.37-3.99 9.99-4.75 3.7.7 6.74 3.22 10.2 4.62-.16 1.1-.74 1.9-1.73 2.39-2.79 1.43-5.57 2.91-8.47 4.11-3.39-1.59-6.99-2.97-10.01-5.19.01-.3.02-.89.02-1.18"/>
</svg>

<svg width="256px" height="256px" viewBox="0 0 128 128" version="1.1" xmlns="http://www.w3.org/2000/svg"><path d=" M 56.83 28.27 C 59.38 23.74 65.73 24.41 69.83 26.14 C 72.89 30.26 68.73 34.61 67.49 38.59 C 66.36 40.34 66.19 44.00 63.57 43.94 C 61.00 41.43 60.42 37.52 58.77 34.39 C 57.72 32.50 56.92 30.46 56.83 28.27 Z" /><path d=" M 47.79 32.77 C 48.87 31.74 50.55 32.12 51.90 31.84 C 53.82 34.75 55.53 38.31 54.86 41.88 C 53.71 45.75 49.57 47.31 47.39 50.47 C 42.88 55.60 39.24 62.87 42.16 69.66 C 44.64 74.85 48.31 79.53 53.06 82.83 C 55.51 84.45 57.08 87.12 57.87 89.90 C 57.97 93.60 58.54 97.26 58.94 100.93 C 59.36 102.25 57.62 103.96 56.63 102.44 C 50.14 96.27 42.24 91.59 36.75 84.39 C 35.86 83.61 35.30 82.06 34.01 81.94 C 31.79 83.12 29.71 84.57 27.50 85.78 C 26.24 86.14 24.99 86.53 23.74 86.92 C 22.09 86.10 20.43 85.33 18.74 84.62 C 21.54 80.69 27.01 79.92 30.97 77.42 C 30.63 74.43 28.56 71.85 27.79 68.92 C 22.22 69.83 16.59 69.99 10.96 70.23 C 7.82 70.27 3.92 72.24 1.34 69.63 C 3.32 66.26 5.14 62.06 9.48 61.34 C 15.53 60.53 21.70 61.53 27.80 61.43 C 27.94 58.84 28.83 56.40 29.99 54.11 C 25.70 53.20 20.74 52.90 17.50 49.58 C 16.29 47.54 15.81 45.18 15.01 42.97 C 21.49 42.92 27.27 46.59 33.45 48.16 C 37.24 42.22 42.53 37.40 47.79 32.77 Z" /><path d=" M 76.10 31.84 C 77.44 32.11 79.09 31.71 80.16 32.76 C 85.47 37.35 90.74 42.22 94.55 48.16 C 100.73 46.59 106.50 42.93 112.98 42.97 C 112.17 45.19 111.71 47.59 110.46 49.62 C 107.23 52.91 102.28 53.20 98.01 54.11 C 99.16 56.40 100.07 58.84 100.19 61.43 C 106.27 61.52 112.42 60.55 118.45 61.32 C 122.81 62.03 124.66 66.22 126.66 69.60 C 124.12 72.27 120.18 70.26 117.04 70.23 C 111.41 69.99 105.78 69.83 100.21 68.92 C 99.47 71.86 97.30 74.44 97.07 77.45 C 101.02 79.92 106.46 80.70 109.26 84.62 C 107.56 85.33 105.89 86.10 104.25 86.94 C 100.65 86.14 97.56 84.16 94.52 82.18 C 93.28 81.29 92.54 83.11 91.77 83.77 C 86.00 91.43 77.69 96.45 70.77 102.92 L 70.02 103.05 C 67.80 100.63 70.14 96.97 69.88 94.05 C 69.57 89.76 71.29 85.26 74.95 82.82 C 79.69 79.52 83.36 74.85 85.84 69.66 C 88.76 62.88 85.13 55.61 80.63 50.49 C 78.44 47.31 74.28 45.76 73.13 41.86 C 72.48 38.30 74.17 34.74 76.10 31.84 Z" /><path d=" M 54.03 64.46 C 57.21 62.63 60.40 60.47 64.02 59.71 C 67.72 60.41 70.76 62.93 74.22 64.33 C 74.06 65.43 73.48 66.23 72.49 66.72 C 69.70 68.15 66.92 69.63 64.02 70.83 C 60.63 69.24 57.03 67.86 54.01 65.64 C 54.02 65.34 54.03 64.75 54.03 64.46 Z" /></svg>
